X:1
T:No livnar det i lundar
T:No livnar det i lundar
T:Ludvig M. Lindeman, 1875
T:Nasjonaltheatret/Norsk sangerforum 2016
C:Ludvig M. Lindeman, 1875
Z:Nasjonaltheatret/Norsk sangerforum 2016
%%score [ 1 2 3 4 ]
L:1/8
Q:1/4=90
M:4/4
K:F
V:1 treble nm="Sopran"
V:2 treble nm="Alt"
V:3 treble-8 nm="Tenor"
V:4 bass nm="Bass"
V:1
 F2 | F2 G2 A2 F2 | c4 c2 d2 | c3 A F2 A2 | G6 c2 | B2 A2 G2 F2 | F4 E2 D2 | C3 A B2 G2 | F6 |] %9
w: No|liv- nar det i|lun- dar, no|lau- vast det i|li, den|hei- le skap- ning|stun- dar no|fram til su- mars|tid.|
V:2
 A,2 | C2 D2 C2 A,2 | C4 E2 F2 | G3 E F2 F2 | E6 E2 | C2 C2 D2 D2 | C4 C2 B,2 | A,3 C B,2 B,2 | %8
w: No|liv- nar det i|lun- dar, no|lau- vast det i|li, den|hei- le skap- ning|stun- dar no|fram til su- mars|
 A,6 |] %9
w: tid.|
V:3
 C2 | F2 F2 E2 F2 | G4 B2 A2 | G3 c A2 c2 | c6 G2 | G2 A2 B2 A2 | G4 G2 G2 | A3 F F2 E2 | C6 |] %9
w: No|liv- nar det i|lun- dar, no|lau- vast det i|li, den|hei- le skap- ning|stun- dar no|fram til su- mars|tid.|
V:4
 F,,2 | A,,2 B,,2 C,2 D,2 | E,4 G,2 F,2 | E,3 C, D,2 A,,2 | C,6 C,2 | E,2 F,2 B,,2 =B,,2 | %6
w: No|liv- nar det i|lun- dar, no|lau- vast det i|li, den|hei- le skap- ning|
 C,4 C,2 E,2 | F,3 F,, G,,2 C,2 | F,,6 |] %9
w: stun- dar no|fram til su- mars|tid.|

